static/img/kroki/099d9583e8a2b3521ef3e0fbcc5fd6ad.svg

<?xml version="1.0" encoding="us-ascii" standalone="no"?><svg xmlns="http://www.w3.org/2000/svg" xmlns:xlink="http://www.w3.org/1999/xlink" contentStyleType="text/css" height="1015px" preserveAspectRatio="none" style="width:250px;height:1015px;" version="1.1" viewBox="0 0 250 1015" width="250px" zoomAndPan="magnify"><defs/><g><!--class microsoft_graph_entity--><g id="elem_microsoft_graph_entity"><rect codeLine="23" fill="#3D176E" height="74.0859" id="microsoft_graph_entity" rx="2.5" ry="2.5" style="stroke:#000D19;stroke-width:0.5;" width="236" x="7" y="660.14"/><ellipse cx="22" cy="680.0345" fill="#ADD1B2" rx="11" ry="11" style="stroke:#181818;stroke-width:1.0;"/><path d="M24.9688,685.6752 Q24.3906,685.972 23.75,686.1127 Q23.1094,686.2689 22.4063,686.2689 Q19.9063,686.2689 18.5781,684.6283 Q17.2656,682.972 17.2656,679.847 Q17.2656,676.722 18.5781,675.0658 Q19.9063,673.4095 22.4063,673.4095 Q23.1094,673.4095 23.75,673.5658 Q24.4063,673.722 24.9688,674.0189 L24.9688,676.7377 Q24.3438,676.1595 23.75,675.8939 Q23.1563,675.6127 22.5313,675.6127 Q21.1875,675.6127 20.5,676.6908 Q19.8125,677.7533 19.8125,679.847 Q19.8125,681.9408 20.5,683.0189 Q21.1875,684.0814 22.5313,684.0814 Q23.1563,684.0814 23.75,683.8158 Q24.3438,683.5345 24.9688,682.9564 L24.9688,685.6752 Z " fill="#000000"/><text fill="#D9B8FF" font-family="Helvetica" font-size="17" lengthAdjust="spacing" textLength="194" x="41" y="685.9198">microsoft_graph_entity</text><line style="stroke:#000D19;stroke-width:0.5;" x1="8" x2="242" y1="699.9291" y2="699.9291"/><text fill="#D9B8FF" font-family="sans-serif" font-size="14" font-weight="bold" lengthAdjust="spacing" textLength="143" x="18" y="721.9242">deleted_date_time</text><text fill="#D9B8FF" font-family="sans-serif" font-size="14" lengthAdjust="spacing" textLength="70" x="161" y="721.9242">: datetime</text></g><!--class microsoft_graph_policy--><g id="elem_microsoft_graph_policy"><rect codeLine="26" fill="#3D176E" height="152.9766" id="microsoft_graph_policy" rx="2.5" ry="2.5" style="stroke:#000D19;stroke-width:0.5;" width="234" x="8" y="855.22"/><ellipse cx="23" cy="875.1145" fill="#ADD1B2" rx="11" ry="11" style="stroke:#181818;stroke-width:1.0;"/><path d="M25.9688,880.7552 Q25.3906,881.052 24.75,881.1927 Q24.1094,881.3489 23.4063,881.3489 Q20.9063,881.3489 19.5781,879.7083 Q18.2656,878.052 18.2656,874.927 Q18.2656,871.802 19.5781,870.1458 Q20.9063,868.4895 23.4063,868.4895 Q24.1094,868.4895 24.75,868.6458 Q25.4063,868.802 25.9688,869.0989 L25.9688,871.8177 Q25.3438,871.2395 24.75,870.9739 Q24.1563,870.6927 23.5313,870.6927 Q22.1875,870.6927 21.5,871.7708 Q20.8125,872.8333 20.8125,874.927 Q20.8125,877.0208 21.5,878.0989 Q22.1875,879.1614 23.5313,879.1614 Q24.1563,879.1614 24.75,878.8958 Q25.3438,878.6145 25.9688,878.0364 L25.9688,880.7552 Z " fill="#000000"/><text fill="#D9B8FF" font-family="Helvetica" font-size="17" lengthAdjust="spacing" textLength="192" x="42" y="880.9998">microsoft_graph_policy</text><line style="stroke:#000D19;stroke-width:0.5;" x1="9" x2="241" y1="895.0091" y2="895.0091"/><text fill="#D9B8FF" font-family="sans-serif" font-size="14" font-weight="bold" lengthAdjust="spacing" textLength="89" x="19" y="917.0042">description</text><text fill="#D9B8FF" font-family="sans-serif" font-size="14" lengthAdjust="spacing" textLength="48" x="108" y="917.0042">: string</text><text fill="#D9B8FF" font-family="sans-serif" font-size="14" font-weight="bold" lengthAdjust="spacing" textLength="63" x="19" y="943.3011">enabled</text><text fill="#D9B8FF" font-family="sans-serif" font-size="14" lengthAdjust="spacing" textLength="65" x="82" y="943.3011">: boolean</text><text fill="#D9B8FF" font-family="sans-serif" font-size="14" font-weight="bold" lengthAdjust="spacing" textLength="46" x="19" y="969.5979">policy</text><text fill="#D9B8FF" font-family="sans-serif" font-size="14" lengthAdjust="spacing" textLength="156" x="65" y="969.5979">: dictionary[string, any]</text><text fill="#D9B8FF" font-family="sans-serif" font-size="14" font-weight="bold" lengthAdjust="spacing" textLength="86" x="19" y="995.8948">policy_kind</text><text fill="#D9B8FF" font-family="sans-serif" font-size="14" lengthAdjust="spacing" textLength="48" x="105" y="995.8948">: string</text></g><!--class microsoft_resource--><g id="elem_microsoft_resource"><rect codeLine="32" fill="#3D176E" height="100.3828" id="microsoft_resource" rx="2.5" ry="2.5" style="stroke:#000D19;stroke-width:0.5;" width="214" x="18" y="438.75"/><ellipse cx="39.3" cy="458.6445" fill="#ADD1B2" rx="11" ry="11" style="stroke:#181818;stroke-width:1.0;"/><path d="M42.2688,464.2852 Q41.6906,464.582 41.05,464.7227 Q40.4094,464.8789 39.7063,464.8789 Q37.2063,464.8789 35.8781,463.2383 Q34.5656,461.582 34.5656,458.457 Q34.5656,455.332 35.8781,453.6758 Q37.2063,452.0195 39.7063,452.0195 Q40.4094,452.0195 41.05,452.1758 Q41.7063,452.332 42.2688,452.6289 L42.2688,455.3477 Q41.6438,454.7695 41.05,454.5039 Q40.4563,454.2227 39.8313,454.2227 Q38.4875,454.2227 37.8,455.3008 Q37.1125,456.3633 37.1125,458.457 Q37.1125,460.5508 37.8,461.6289 Q38.4875,462.6914 39.8313,462.6914 Q40.4563,462.6914 41.05,462.4258 Q41.6438,462.1445 42.2688,461.5664 L42.2688,464.2852 Z " fill="#000000"/><text fill="#D9B8FF" font-family="Helvetica" font-size="17" lengthAdjust="spacing" textLength="158" x="59.7" y="464.5298">microsoft_resource</text><line style="stroke:#000D19;stroke-width:0.5;" x1="19" x2="231" y1="478.5391" y2="478.5391"/><text fill="#D9B8FF" font-family="sans-serif" font-size="14" font-weight="bold" lengthAdjust="spacing" textLength="35" x="29" y="500.5342">etag</text><text fill="#D9B8FF" font-family="sans-serif" font-size="14" lengthAdjust="spacing" textLength="48" x="64" y="500.5342">: string</text><text fill="#D9B8FF" font-family="sans-serif" font-size="14" font-weight="bold" lengthAdjust="spacing" textLength="144" x="29" y="526.8311">provisioning_state</text><text fill="#D9B8FF" font-family="sans-serif" font-size="14" lengthAdjust="spacing" textLength="48" x="173" y="526.8311">: string</text></g><!--class resource--><g id="elem_resource"><rect codeLine="36" fill="#3D176E" height="310.7578" id="resource" rx="2.5" ry="2.5" style="stroke:#000D19;stroke-width:0.5;" width="227" x="11.5" y="7"/><ellipse cx="80.25" cy="26.8945" fill="#ADD1B2" rx="11" ry="11" style="stroke:#181818;stroke-width:1.0;"/><path d="M83.2188,32.5352 Q82.6406,32.832 82,32.9727 Q81.3594,33.1289 80.6563,33.1289 Q78.1563,33.1289 76.8281,31.4883 Q75.5156,29.832 75.5156,26.707 Q75.5156,23.582 76.8281,21.9258 Q78.1563,20.2695 80.6563,20.2695 Q81.3594,20.2695 82,20.4258 Q82.6563,20.582 83.2188,20.8789 L83.2188,23.5977 Q82.5938,23.0195 82,22.7539 Q81.4063,22.4727 80.7813,22.4727 Q79.4375,22.4727 78.75,23.5508 Q78.0625,24.6133 78.0625,26.707 Q78.0625,28.8008 78.75,29.8789 Q79.4375,30.9414 80.7813,30.9414 Q81.4063,30.9414 82,30.6758 Q82.5938,30.3945 83.2188,29.8164 L83.2188,32.5352 Z " fill="#000000"/><text fill="#D9B8FF" font-family="Helvetica" font-size="17" lengthAdjust="spacing" textLength="71" x="105.75" y="32.7798">resource</text><line style="stroke:#000D19;stroke-width:0.5;" x1="12.5" x2="237.5" y1="46.7891" y2="46.7891"/><text fill="#D9B8FF" font-family="sans-serif" font-size="14" font-weight="bold" lengthAdjust="spacing" textLength="29" x="22.5" y="68.7842">age</text><text fill="#D9B8FF" font-family="sans-serif" font-size="14" lengthAdjust="spacing" textLength="66" x="51.5" y="68.7842">: duration</text><text fill="#D9B8FF" font-family="sans-serif" font-size="14" font-weight="bold" lengthAdjust="spacing" textLength="43" x="22.5" y="95.0811">atime</text><text fill="#D9B8FF" font-family="sans-serif" font-size="14" lengthAdjust="spacing" textLength="70" x="65.5" y="95.0811">: datetime</text><text fill="#D9B8FF" font-family="sans-serif" font-size="14" font-weight="bold" lengthAdjust="spacing" textLength="43" x="22.5" y="121.3779">ctime</text><text fill="#D9B8FF" font-family="sans-serif" font-size="14" lengthAdjust="spacing" textLength="70" x="65.5" y="121.3779">: datetime</text><text fill="#D9B8FF" font-family="sans-serif" font-size="14" font-weight="bold" lengthAdjust="spacing" textLength="14" x="22.5" y="147.6748">id</text><text fill="#D9B8FF" font-family="sans-serif" font-size="14" lengthAdjust="spacing" textLength="48" x="36.5" y="147.6748">: string</text><text fill="#D9B8FF" font-family="sans-serif" font-size="14" font-weight="bold" lengthAdjust="spacing" textLength="33" x="22.5" y="173.9717">kind</text><text fill="#D9B8FF" font-family="sans-serif" font-size="14" lengthAdjust="spacing" textLength="48" x="55.5" y="173.9717">: string</text><text fill="#D9B8FF" font-family="sans-serif" font-size="14" font-weight="bold" lengthAdjust="spacing" textLength="90" x="22.5" y="200.2686">last_access</text><text fill="#D9B8FF" font-family="sans-serif" font-size="14" lengthAdjust="spacing" textLength="66" x="112.5" y="200.2686">: duration</text><text fill="#D9B8FF" font-family="sans-serif" font-size="14" font-weight="bold" lengthAdjust="spacing" textLength="90" x="22.5" y="226.5654">last_update</text><text fill="#D9B8FF" font-family="sans-serif" font-size="14" lengthAdjust="spacing" textLength="66" x="112.5" y="226.5654">: duration</text><text fill="#D9B8FF" font-family="sans-serif" font-size="14" font-weight="bold" lengthAdjust="spacing" textLength="48" x="22.5" y="252.8623">mtime</text><text fill="#D9B8FF" font-family="sans-serif" font-size="14" lengthAdjust="spacing" textLength="70" x="70.5" y="252.8623">: datetime</text><text fill="#D9B8FF" font-family="sans-serif" font-size="14" font-weight="bold" lengthAdjust="spacing" textLength="43" x="22.5" y="279.1592">name</text><text fill="#D9B8FF" font-family="sans-serif" font-size="14" lengthAdjust="spacing" textLength="48" x="65.5" y="279.1592">: string</text><text fill="#D9B8FF" font-family="sans-serif" font-size="14" font-weight="bold" lengthAdjust="spacing" textLength="34" x="22.5" y="305.4561">tags</text><text fill="#D9B8FF" font-family="sans-serif" font-size="14" lengthAdjust="spacing" textLength="171" x="56.5" y="305.4561">: dictionary[string, string]</text></g><!--reverse link microsoft_resource to microsoft_graph_entity--><g id="link_microsoft_resource_microsoft_graph_entity"><path codeLine="48" d="M125,557.61 C125,594.67 125,626.48 125,659.87 " fill="none" id="microsoft_resource-backto-microsoft_graph_entity" style="stroke:#FFAF37;stroke-width:2.0;"/><polygon fill="none" points="125,539.61,119,557.61,131,557.61,125,539.61" style="stroke:#FFAF37;stroke-width:2.0;"/></g><!--reverse link microsoft_graph_entity to microsoft_graph_policy--><g id="link_microsoft_graph_entity_microsoft_graph_policy"><path codeLine="49" d="M125,752.51 C125,784.57 125,814.35 125,854.73 " fill="none" id="microsoft_graph_entity-backto-microsoft_graph_policy" style="stroke:#FFAF37;stroke-width:2.0;"/><polygon fill="none" points="125,734.51,119,752.51,131,752.51,125,734.51" style="stroke:#FFAF37;stroke-width:2.0;"/></g><!--reverse link resource to microsoft_resource--><g id="link_resource_microsoft_resource"><path codeLine="50" d="M125,336.06 C125,379.65 125,405.98 125,438.42 " fill="none" id="resource-backto-microsoft_resource" style="stroke:#FFAF37;stroke-width:2.0;"/><polygon fill="none" points="125,318.06,119,336.06,131,336.06,125,318.06" style="stroke:#FFAF37;stroke-width:2.0;"/></g><!--SRC=[XLDBJzj04BxxLwp4pMga1DI6e5ve9DHUK0Mz8MIDTyVEAjvTQtOC2ct_ExinGNx2oV7CDzzZCjvfXG9DpGTXqEH8Fl5xRMiWCEAQo3rlNUL8d1K551VhOVF6MVuKS0i6nK-idf2rX27YpqxBlKNlnNcdzGFalYJNMDNICu7reOMMEwXj1TvVCvFE6yQE6RN9BujYY1oIdbserVeRZc2E5D8RPBbSgjLc2FbKwiFSxuXx_O9YrLtQhMCSsHn9754Vkeo8ZibHq5D_rkDlK4hRKdpjrEvQJsIHUlNx7IZt7D45LBuhuna97Hzgt8vIuUPI5Uj9yAyvS2BZweJHafnt1MSbGRtBmbNeSC5_apHLM26ZoXGmPgmDfkcLY2_nT_9_Xg1sbPOd0Yz9rwoTZQC-79SjGnqjv1MgMCkTgn1iABPpHmajumZGuQ4T-IB07XxVCLc8gJg4OoU4tZKayUW26SgUV4tkIVkW45uppo7G15cF0iesUqCGdSNAQ1zfAYTgMlMa1yxJD6Xn1bA6ZtQWSEmqjNgpr-cO2HqB1dl48RIVMMRxV0nH9pRs_TzYiPYvYcJcMAPdsZyhcMK-DP9N]--></g></svg>

<svg xmlns="http://www.w3.org/2000/svg" width="250" height="1015" viewBox="0 0 250 1015"><rect width="236" height="74.086" x="7" y="660.14" fill="#3D176E" rx="2.5" ry="2.5" style="stroke:#000d19;stroke-width:.5"/><circle cx="22" cy="680.034" r="11" fill="#ADD1B2" style="stroke:#181818;stroke-width:1"/><path d="M24.969 685.675q-.578.297-1.219.438-.64.156-1.344.156-2.5 0-3.828-1.64-1.312-1.657-1.312-4.782t1.312-4.781q1.328-1.657 3.828-1.657.703 0 1.344.157.656.156 1.219.453v2.719q-.625-.579-1.219-.844-.594-.281-1.219-.281-1.343 0-2.031 1.078-.687 1.062-.687 3.156t.687 3.172q.688 1.062 2.031 1.062.625 0 1.219-.265.594-.282 1.219-.86z"/><text x="41" y="685.92" fill="#D9B8FF" font-family="Helvetica" font-size="17" textLength="194">microsoft_graph_entity</text><path d="M8 699.929h234" style="stroke:#000d19;stroke-width:.5"/><text x="18" y="721.924" fill="#D9B8FF" font-family="sans-serif" font-size="14" font-weight="bold" textLength="143">deleted_date_time</text><text x="161" y="721.924" fill="#D9B8FF" font-family="sans-serif" font-size="14" textLength="70">: datetime</text><rect width="234" height="152.977" x="8" y="855.22" fill="#3D176E" rx="2.5" ry="2.5" style="stroke:#000d19;stroke-width:.5"/><circle cx="23" cy="875.115" r="11" fill="#ADD1B2" style="stroke:#181818;stroke-width:1"/><path d="M25.969 880.755q-.578.297-1.219.438-.64.156-1.344.156-2.5 0-3.828-1.64-1.312-1.657-1.312-4.782t1.312-4.781q1.328-1.656 3.828-1.656.703 0 1.344.156.656.156 1.219.453v2.719q-.625-.578-1.219-.844-.594-.281-1.219-.281-1.343 0-2.031 1.078-.687 1.062-.687 3.156t.687 3.172q.688 1.062 2.031 1.062.625 0 1.219-.265.594-.281 1.219-.86z"/><text x="42" y="881" fill="#D9B8FF" font-family="Helvetica" font-size="17" textLength="192">microsoft_graph_policy</text><path d="M9 895.009h232" style="stroke:#000d19;stroke-width:.5"/><text x="19" y="917.004" fill="#D9B8FF" font-family="sans-serif" font-size="14" font-weight="bold" textLength="89">description</text><text x="108" y="917.004" fill="#D9B8FF" font-family="sans-serif" font-size="14" textLength="48">: string</text><text x="19" y="943.301" fill="#D9B8FF" font-family="sans-serif" font-size="14" font-weight="bold" textLength="63">enabled</text><text x="82" y="943.301" fill="#D9B8FF" font-family="sans-serif" font-size="14" textLength="65">: boolean</text><text x="19" y="969.598" fill="#D9B8FF" font-family="sans-serif" font-size="14" font-weight="bold" textLength="46">policy</text><text x="65" y="969.598" fill="#D9B8FF" font-family="sans-serif" font-size="14" textLength="156">: dictionary[string, any]</text><text x="19" y="995.895" fill="#D9B8FF" font-family="sans-serif" font-size="14" font-weight="bold" textLength="86">policy_kind</text><text x="105" y="995.895" fill="#D9B8FF" font-family="sans-serif" font-size="14" textLength="48">: string</text><rect width="214" height="100.383" x="18" y="438.75" fill="#3D176E" rx="2.5" ry="2.5" style="stroke:#000d19;stroke-width:.5"/><circle cx="39.3" cy="458.644" r="11" fill="#ADD1B2" style="stroke:#181818;stroke-width:1"/><path d="M42.269 464.285q-.578.297-1.219.438-.64.156-1.344.156-2.5 0-3.828-1.64-1.312-1.657-1.312-4.782t1.312-4.781q1.328-1.656 3.828-1.656.703 0 1.344.156.656.156 1.219.453v2.719q-.625-.579-1.219-.844-.594-.281-1.219-.281-1.344 0-2.031 1.078-.687 1.062-.687 3.156t.687 3.172q.688 1.062 2.031 1.062.625 0 1.219-.265.594-.281 1.219-.86z"/><text x="59.7" y="464.53" fill="#D9B8FF" font-family="Helvetica" font-size="17" textLength="158">microsoft_resource</text><path d="M19 478.539h212" style="stroke:#000d19;stroke-width:.5"/><text x="29" y="500.534" fill="#D9B8FF" font-family="sans-serif" font-size="14" font-weight="bold" textLength="35">etag</text><text x="64" y="500.534" fill="#D9B8FF" font-family="sans-serif" font-size="14" textLength="48">: string</text><text x="29" y="526.831" fill="#D9B8FF" font-family="sans-serif" font-size="14" font-weight="bold" textLength="144">provisioning_state</text><text x="173" y="526.831" fill="#D9B8FF" font-family="sans-serif" font-size="14" textLength="48">: string</text><rect width="227" height="310.758" x="11.5" y="7" fill="#3D176E" rx="2.5" ry="2.5" style="stroke:#000d19;stroke-width:.5"/><circle cx="80.25" cy="26.895" r="11" fill="#ADD1B2" style="stroke:#181818;stroke-width:1"/><path d="M83.219 32.535q-.578.297-1.219.438-.64.156-1.344.156-2.5 0-3.828-1.64-1.312-1.657-1.312-4.782t1.312-4.781q1.328-1.656 3.828-1.656.703 0 1.344.156.656.156 1.219.453v2.719q-.625-.578-1.219-.844-.594-.281-1.219-.281-1.344 0-2.031 1.078-.687 1.062-.687 3.156t.687 3.172q.688 1.062 2.031 1.062.625 0 1.219-.265.594-.281 1.219-.86z"/><text x="105.75" y="32.78" fill="#D9B8FF" font-family="Helvetica" font-size="17" textLength="71">resource</text><path d="M12.5 46.789h225" style="stroke:#000d19;stroke-width:.5"/><text x="22.5" y="68.784" fill="#D9B8FF" font-family="sans-serif" font-size="14" font-weight="bold" textLength="29">age</text><text x="51.5" y="68.784" fill="#D9B8FF" font-family="sans-serif" font-size="14" textLength="66">: duration</text><text x="22.5" y="95.081" fill="#D9B8FF" font-family="sans-serif" font-size="14" font-weight="bold" textLength="43">atime</text><text x="65.5" y="95.081" fill="#D9B8FF" font-family="sans-serif" font-size="14" textLength="70">: datetime</text><text x="22.5" y="121.378" fill="#D9B8FF" font-family="sans-serif" font-size="14" font-weight="bold" textLength="43">ctime</text><text x="65.5" y="121.378" fill="#D9B8FF" font-family="sans-serif" font-size="14" textLength="70">: datetime</text><text x="22.5" y="147.675" fill="#D9B8FF" font-family="sans-serif" font-size="14" font-weight="bold" textLength="14">id</text><text x="36.5" y="147.675" fill="#D9B8FF" font-family="sans-serif" font-size="14" textLength="48">: string</text><text x="22.5" y="173.972" fill="#D9B8FF" font-family="sans-serif" font-size="14" font-weight="bold" textLength="33">kind</text><text x="55.5" y="173.972" fill="#D9B8FF" font-family="sans-serif" font-size="14" textLength="48">: string</text><text x="22.5" y="200.269" fill="#D9B8FF" font-family="sans-serif" font-size="14" font-weight="bold" textLength="90">last_access</text><text x="112.5" y="200.269" fill="#D9B8FF" font-family="sans-serif" font-size="14" textLength="66">: duration</text><text x="22.5" y="226.565" fill="#D9B8FF" font-family="sans-serif" font-size="14" font-weight="bold" textLength="90">last_update</text><text x="112.5" y="226.565" fill="#D9B8FF" font-family="sans-serif" font-size="14" textLength="66">: duration</text><text x="22.5" y="252.862" fill="#D9B8FF" font-family="sans-serif" font-size="14" font-weight="bold" textLength="48">mtime</text><text x="70.5" y="252.862" fill="#D9B8FF" font-family="sans-serif" font-size="14" textLength="70">: datetime</text><text x="22.5" y="279.159" fill="#D9B8FF" font-family="sans-serif" font-size="14" font-weight="bold" textLength="43">name</text><text x="65.5" y="279.159" fill="#D9B8FF" font-family="sans-serif" font-size="14" textLength="48">: string</text><text x="22.5" y="305.456" fill="#D9B8FF" font-family="sans-serif" font-size="14" font-weight="bold" textLength="34">tags</text><text x="56.5" y="305.456" fill="#D9B8FF" font-family="sans-serif" font-size="14" textLength="171">: dictionary[string, string]</text><path fill="none" d="M125 557.61v102.26m0-120.26-6 18h12zm0 212.9v102.22m0-120.22-6 18h12zm0-398.45v102.36m0-120.36-6 18h12z" style="stroke:#ffaf37;stroke-width:2"/></svg>
